Yaru++/mimetypes/scalable/application-vnd-dart.svg

<svg height="256" viewBox="0 0 67.73 67.73" width="256" xmlns="http://www.w3.org/2000/svg" xmlns:xlink="http://www.w3.org/1999/xlink"><radialGradient id="a" cx="69.955002" cy="60.886398" gradientTransform="matrix(1 0 0 -1 0 129.5328)" gradientUnits="userSpaceOnUse" r="68.065002"><stop offset="0" stop-color="#fff" stop-opacity=".1"/><stop offset="1" stop-color="#fff" stop-opacity="0"/></radialGradient><linearGradient id="b" gradientTransform="matrix(0 -.11988342 .11987999 0 .362762 62.7494)" gradientUnits="userSpaceOnUse" x1="529.65515" x2="-35.310345" y1="401.58368" y2="119.09284"><stop offset="0" stop-color="#f2f2f2"/><stop offset="1" stop-color="#f9f9f9"/></linearGradient><linearGradient id="c" gradientUnits="userSpaceOnUse" x1="88" x2="488" y1="88" y2="488"><stop offset="0" stop-opacity=".588235"/><stop offset=".88" stop-opacity="0"/><stop offset="1"/></linearGradient><filter id="d" color-interpolation-filters="sRGB" height="1.087725" width="1.105998" x="-.052999" y="-.043863"><feGaussianBlur stdDeviation="8.4801079"/></filter><filter id="e" color-interpolation-filters="sRGB" height="1.021931" width="1.0265" x="-.01325" y="-.010966"><feGaussianBlur stdDeviation="2.120027"/></filter><path d="m20.703991 3.4856498c-9.338464 0-10.343273.959178-10.297505 10.3165312v19.315345 19.315344c-.04577 9.357355.959041 10.316531 10.297505 10.316531h25.969365c9.338465 0 10.297506-.959068 10.297506-10.316531v-19.315344-19.315345c0-9.3574652-.959041-10.3165312-10.297506-10.3165312z" fill="none" opacity=".2" stroke="#000" stroke-width="1.058281"/><path d="m189.84323 74c-70.59344 0-78.18921 7.250835-77.84323 77.98706v146.01294 146.01294c-.34598 70.73623 7.24979 77.98706 77.84323 77.98706h196.31354c70.59344 0 76.00668-7.27384 77.84323-77.98706v-146.01294-146.01294c0-70.737067-7.24979-77.98706-77.84323-77.98706z" filter="url(#e)" opacity=".1" transform="matrix(.13228516 0 0 .13228516 -4.409451 -6.038882)"/><path d="m189.84323 74c-70.59344 0-78.18921 7.250835-77.84323 77.98706v146.01294 146.01294c-.34598 70.73623 7.24979 77.98706 77.84323 77.98706h196.31354c70.59344 0 77.84323-7.24999 77.84323-77.98706v-146.01294-146.01294c0-70.737067-7.24979-77.98706-77.84323-77.98706z" fill="url(#c)" filter="url(#d)" opacity=".3" transform="matrix(.13228516 0 0 .13228516 -4.409451 -6.038882)"/><path d="m20.703991 3.4856498c-9.338464 0-10.343273.959178-10.297505 10.3165312v19.315345 19.315344c-.04577 9.357355.959041 10.316531 10.297505 10.316531h25.969365c9.338465 0 10.297506-.959068 10.297506-10.316531v-19.315344-19.315345c0-9.3574652-.959041-10.3165312-10.297506-10.3165312z" fill="url(#b)"/><path d="m20.70406 3.4856498c-9.338466 0-10.343342.95934-10.297574 10.3166922v.529141c-.04577-9.3573532.959108-10.3166922 10.297574-10.3166922h25.969228c9.338467 0 10.297574.959228 10.297574 10.3166922v-.529141c0-9.3574642-.959107-10.3166922-10.297574-10.3166922z" fill="#fff" opacity=".6"/><g enable-background="new" transform="matrix(.20939776 0 0 .20939776 18.972874 18.671497)"><path d="m29.64 108.94-23.28-23.28c-2.76-2.84-4.48-6.84-4.48-10.75 0-1.81 1.02-4.64 1.79-6.27l21.49-44.77z" fill="#01579b"/><path d="m109.34 28.35-23.28-23.28c-2.03-2.04-6.27-4.48-9.85-4.48-3.08 0-6.1.62-8.06 1.79l-42.98 21.49z" fill="#40c4ff"/><path d="m57.4 136.7h56.42v-24.18l-42.09-13.43-38.5 13.43z" fill="#40c4ff"/><path d="m25.17 96.41c0 7.18.9 8.95 4.48 12.54l3.58 3.58h80.59l-39.4-44.77-49.25-43.88z" fill="#29b6f6"/><path d="m96.8 23.87h-71.64l88.65 88.65h24.18v-55.52l-28.65-28.65c-4.02-4.04-7.6-4.48-12.54-4.48z" fill="#01579b"/><path d="m30.54 109.84c-3.58-3.6-4.48-7.14-4.48-13.43v-71.64l-.9-.9v72.53c.01 6.3.01 8.04 5.38 13.44l2.69 2.69z" fill="#fff" opacity=".2"/><path d="m137.1 111.63h-24.18l.9.89h24.18v-55.51l-.9-.9z" fill="#263238" opacity=".2"/><path d="m109.34 28.35c-4.44-4.44-8.08-4.48-13.43-4.48h-70.74l.9.9h69.85c2.66 0 9.41-.45 13.42 3.58z" fill="#fff" opacity=".2"/><path d="m137.1 56.11-27.76-27.76-23.28-23.28c-2.03-2.04-6.27-4.48-9.85-4.48-3.08 0-6.1.62-8.06 1.79l-42.98 21.49-21.49 44.77c-.77 1.63-1.79 4.46-1.79 6.27 0 3.91 1.72 7.91 4.48 10.75l21.46 21.3c.51.63 1.11 1.27 1.83 1.98l.9.9 2.69 2.69 23.28 23.28.9.9h55.52.9v-24.18h24.18v-.06-55.46z" fill="url(#a)" opacity=".2"/></g><g fill="#fff"><path d="m33.688674 3.4856498v59.2637512h12.984614c9.338464 0 10.054627-.962123 10.297574-10.316435v-19.31544-19.315442c0-9.3574642-.95911-10.3164342-10.297574-10.3164342z" opacity=".1"/><path d="m10.406486 33.117526v19.31544c-.04577 9.357354.959109 10.316435 10.297574 10.316435h25.969228c9.338464 0 10.054627-.962123 10.297574-10.316435v-19.31544z" opacity=".2"/><path d="m41.096643 62.749401 15.874219-15.874219v5.948567c-.01384 8.994282-1.006077 9.925652-10.099734 9.925652z" opacity=".4"/></g></svg>

<?xml version="1.0" encoding="UTF-8" standalone="no"?>
<svg
   xmlns:dc="http://purl.org/dc/elements/1.1/"
   xmlns:cc="http://creativecommons.org/ns#"
   xmlns:rdf="http://www.w3.org/1999/02/22-rdf-syntax-ns#"
   xmlns:svg="http://www.w3.org/2000/svg"
   xmlns="http://www.w3.org/2000/svg"
   xmlns:xlink="http://www.w3.org/1999/xlink"
   xmlns:sodipodi="http://sodipodi.sourceforge.net/DTD/sodipodi-0.dtd"
   xmlns:inkscape="http://www.inkscape.org/namespaces/inkscape"
   height="256"
   viewBox="0 0 67.73 67.73"
   width="256"
   version="1.1"
   id="svg42"
   sodipodi:docname="application-vnd-dart64.svg"
   inkscape:version="0.92.5 (2060ec1f9f, 2020-04-08)">
  <metadata
     id="metadata48">
    <rdf:RDF>
      <cc:Work
         rdf:about="">
        <dc:format>image/svg+xml</dc:format>
        <dc:type
           rdf:resource="http://purl.org/dc/dcmitype/StillImage" />
        <dc:title></dc:title>
      </cc:Work>
    </rdf:RDF>
  </metadata>
  <defs
     id="defs46">
    <radialGradient
       id="SVGID_1_"
       cx="69.955002"
       cy="60.886398"
       r="68.065002"
       gradientTransform="matrix(1,0,0,-1,0,129.5328)"
       gradientUnits="userSpaceOnUse">
      <stop
         offset="0"
         style="stop-color:#FFFFFF;stop-opacity:0.1"
         id="stop26" />
      <stop
         offset="1"
         style="stop-color:#FFFFFF;stop-opacity:0"
         id="stop28" />
    </radialGradient>
    <linearGradient
       gradientUnits="userSpaceOnUse"
       y2="119.09284"
       x2="-35.310345"
       y1="401.58368"
       x1="529.65515"
       id="linearGradient4226"
       xlink:href="#linearGradient4338"
       inkscape:collect="always"
       gradientTransform="matrix(0,-0.11988342,0.11987999,0,0.3627616,62.7494)" />
    <linearGradient
       inkscape:collect="always"
       id="linearGradient4338">
      <stop
         style="stop-color:#f2f2f2;stop-opacity:1"
         offset="0"
         id="stop4340" />
      <stop
         style="stop-color:#f9f9f9;stop-opacity:1"
         offset="1"
         id="stop4342" />
    </linearGradient>
    <linearGradient
       inkscape:collect="always"
       xlink:href="#linearGradient4360"
       id="linearGradient4358"
       x1="88"
       y1="88"
       x2="488"
       y2="488"
       gradientUnits="userSpaceOnUse" />
    <linearGradient
       id="linearGradient4360"
       inkscape:collect="always">
      <stop
         id="stop4362"
         offset="0"
         style="stop-color:#000000;stop-opacity:0.58823532" />
      <stop
         style="stop-color:#000000;stop-opacity:0"
         offset="0.88"
         id="stop4364" />
      <stop
         id="stop4366"
         offset="1"
         style="stop-color:#000000;stop-opacity:1" />
    </linearGradient>
    <filter
       inkscape:collect="always"
       style="color-interpolation-filters:sRGB"
       id="filter4380"
       x="-0.052999184"
       width="1.1059984"
       y="-0.043862626"
       height="1.0877253">
      <feGaussianBlur
         inkscape:collect="always"
         stdDeviation="8.4801079"
         id="feGaussianBlur4382" />
    </filter>
    <filter
       inkscape:collect="always"
       style="color-interpolation-filters:sRGB"
       id="filter4346"
       x="-0.013249796"
       width="1.0264996"
       y="-0.010965657"
       height="1.0219313">
      <feGaussianBlur
         inkscape:collect="always"
         stdDeviation="2.120027"
         id="feGaussianBlur4348" />
    </filter>
  </defs>
  <sodipodi:namedview
     pagecolor="#ffffff"
     bordercolor="#666666"
     borderopacity="1"
     objecttolerance="10"
     gridtolerance="10"
     guidetolerance="10"
     inkscape:pageopacity="0"
     inkscape:pageshadow="2"
     inkscape:window-width="1920"
     inkscape:window-height="1016"
     id="namedview44"
     showgrid="false"
     inkscape:zoom="0.921875"
     inkscape:cx="163.86803"
     inkscape:cy="128"
     inkscape:window-x="0"
     inkscape:window-y="27"
     inkscape:window-maximized="1"
     inkscape:current-layer="svg42" />
  <linearGradient
     id="a"
     gradientTransform="matrix(0 -.11988342 .11987999 0 .362762 292.01605)"
     gradientUnits="userSpaceOnUse"
     x1="529.65515"
     x2="-35.310345"
     y1="401.58368"
     y2="119.09284">
    <stop
       offset="0"
       stop-color="#f2f2f2"
       id="stop2" />
    <stop
       offset="1"
       stop-color="#f9f9f9"
       id="stop4" />
  </linearGradient>
  <linearGradient
     id="b"
     gradientUnits="userSpaceOnUse"
     x1="88"
     x2="488"
     y1="88"
     y2="488">
    <stop
       offset="0"
       stop-opacity=".588235"
       id="stop7" />
    <stop
       offset=".88"
       stop-opacity="0"
       id="stop9" />
    <stop
       offset="1"
       id="stop11" />
  </linearGradient>
  <filter
     id="c"
     color-interpolation-filters="sRGB"
     height="1.087725"
     width="1.105998"
     x="-.052999"
     y="-.043863">
    <feGaussianBlur
       stdDeviation="8.4801079"
       id="feGaussianBlur14" />
  </filter>
  <filter
     id="d"
     color-interpolation-filters="sRGB"
     height="1.021931"
     width="1.0265"
     x="-.01325"
     y="-.010966">
    <feGaussianBlur
       stdDeviation="2.120027"
       id="feGaussianBlur17" />
  </filter>
  <path
     sodipodi:nodetypes="scccssscsss"
     inkscape:connector-curvature="0"
     id="path1163"
     d="m 20.703991,3.4856498 c -9.338464,0 -10.343273,0.959178 -10.297505,10.3165312 V 33.117526 52.43287 c -0.04577,9.357355 0.959041,10.316531 10.297505,10.316531 h 25.969365 c 9.338465,0 10.297506,-0.959068 10.297506,-10.316531 V 33.117526 13.802181 c 0,-9.3574652 -0.959041,-10.3165312 -10.297506,-10.3165312 z"
     style="color:#000000;display:inline;overflow:visible;visibility:visible;opacity:0.2;fill:none;fill-opacity:1;fill-rule:nonzero;stroke:#000000;stroke-width:1.0582813;stroke-miterlimit:4;stroke-dasharray:none;stroke-opacity:1;marker:none;enable-background:accumulate" />
  <path
     style="color:#000000;display:inline;overflow:visible;visibility:visible;opacity:0.1;fill:#000000;fill-opacity:1;fill-rule:nonzero;stroke:none;stroke-width:2;marker:none;filter:url(#filter4346);enable-background:accumulate"
     d="M 189.84323,74 C 119.24979,74 111.65402,81.250835 112,151.98706 V 298 444.01294 C 111.65402,514.74917 119.24979,522 189.84323,522 H 386.15677 C 456.75021,522 462.16345,514.72616 464,444.01294 V 298 151.98706 C 464,81.249993 456.75021,74 386.15677,74 Z"
     id="rect4158-9"
     inkscape:connector-curvature="0"
     sodipodi:nodetypes="scccssscsss"
     transform="matrix(0.13228516,0,0,0.13228516,-4.4094514,-6.0388816)" />
  <path
     sodipodi:nodetypes="scccssscsss"
     inkscape:connector-curvature="0"
     id="path4350"
     d="M 189.84323,74 C 119.24979,74 111.65402,81.250835 112,151.98706 V 298 444.01294 C 111.65402,514.74917 119.24979,522 189.84323,522 H 386.15677 C 456.75021,522 464,514.75001 464,444.01294 V 298 151.98706 C 464,81.249993 456.75021,74 386.15677,74 Z"
     style="color:#000000;display:inline;overflow:visible;visibility:visible;opacity:0.3;fill:url(#linearGradient4358);fill-opacity:1;fill-rule:nonzero;stroke:none;stroke-width:2;marker:none;filter:url(#filter4380);enable-background:accumulate"
     transform="matrix(0.13228516,0,0,0.13228516,-4.4094514,-6.0388816)" />
  <path
     style="color:#000000;display:inline;overflow:visible;visibility:visible;fill:url(#linearGradient4226);fill-opacity:1;fill-rule:nonzero;stroke:none;stroke-width:0.26457033;marker:none;enable-background:accumulate"
     d="m 20.703991,3.4856498 c -9.338464,0 -10.343273,0.959178 -10.297505,10.3165312 V 33.117526 52.43287 c -0.04577,9.357355 0.959041,10.316531 10.297505,10.316531 h 25.969365 c 9.338465,0 10.297506,-0.959068 10.297506,-10.316531 V 33.117526 13.802181 c 0,-9.3574652 -0.959041,-10.3165312 -10.297506,-10.3165312 z"
     id="rect4158"
     inkscape:connector-curvature="0"
     sodipodi:nodetypes="scccssscsss" />
  <path
     style="color:#000000;display:inline;overflow:visible;visibility:visible;opacity:0.6;fill:#ffffff;fill-opacity:1;fill-rule:nonzero;stroke:none;stroke-width:0.26457033;marker:none;enable-background:accumulate"
     d="m 20.70406,3.4856498 c -9.338466,0 -10.343342,0.95934 -10.297574,10.3166922 v 0.529141 C 10.360716,4.9741298 11.365594,4.0147908 20.70406,4.0147908 h 25.969228 c 9.338467,0 10.297574,0.959228 10.297574,10.3166922 v -0.529141 c 0,-9.3574642 -0.959107,-10.3166922 -10.297574,-10.3166922 z"
     id="path931"
     inkscape:connector-curvature="0" />
  <g
     style="display:inline;enable-background:new"
     transform="matrix(0.20939776,0,0,0.20939776,18.972874,18.671497)"
     id="g33">
    <path
       style="fill:#01579b"
       inkscape:connector-curvature="0"
       d="M 29.64,108.94 6.36,85.66 C 3.6,82.82 1.88,78.82 1.88,74.91 1.88,73.1 2.9,70.27 3.67,68.64 L 25.16,23.87 Z"
       id="path10" />
    <path
       style="fill:#40c4ff"
       inkscape:connector-curvature="0"
       d="M 109.34,28.35 86.06,5.07 C 84.03,3.03 79.79,0.59 76.21,0.59 c -3.08,0 -6.1,0.62 -8.06,1.79 L 25.17,23.87 Z"
       id="path12" />
    <polygon
       style="fill:#40c4ff"
       points="57.4,136.7 113.82,136.7 113.82,112.52 71.73,99.09 33.23,112.52 "
       id="polygon14" />
    <path
       style="fill:#29b6f6"
       inkscape:connector-curvature="0"
       d="m 25.17,96.41 c 0,7.18 0.9,8.95 4.48,12.54 l 3.58,3.58 h 80.59 L 74.42,67.76 25.17,23.88 Z"
       id="path16" />
    <path
       style="fill:#01579b"
       inkscape:connector-curvature="0"
       d="M 96.8,23.87 H 25.16 l 88.65,88.65 h 24.18 V 57 L 109.34,28.35 c -4.02,-4.04 -7.6,-4.48 -12.54,-4.48 z"
       id="path18" />
    <path
       style="opacity:0.2;fill:#ffffff"
       inkscape:connector-curvature="0"
       enable-background="new    "
       d="m 30.54,109.84 c -3.58,-3.6 -4.48,-7.14 -4.48,-13.43 V 24.77 l -0.9,-0.9 V 96.4 c 0.01,6.3 0.01,8.04 5.38,13.44 l 2.69,2.69 v 0 z"
       id="path20" />
    <polygon
       style="opacity:0.2;fill:#263238"
       enable-background="new    "
       points="137.1,111.63 112.92,111.63 113.82,112.52 138,112.52 138,57.01 137.1,56.11 "
       id="polygon22" />
    <path
       style="opacity:0.2;fill:#ffffff"
       inkscape:connector-curvature="0"
       enable-background="new    "
       d="M 109.34,28.35 C 104.9,23.91 101.26,23.87 95.91,23.87 H 25.17 l 0.9,0.9 h 69.85 c 2.66,0 9.41,-0.45 13.42,3.58 z"
       id="path24" />
    <radialGradient
       id="radialGradient872"
       cx="69.955002"
       cy="60.886398"
       r="68.065002"
       gradientTransform="matrix(1,0,0,-1,0,129.5328)"
       gradientUnits="userSpaceOnUse">
      <stop
         offset="0"
         style="stop-color:#FFFFFF;stop-opacity:0.1"
         id="stop868" />
      <stop
         offset="1"
         style="stop-color:#FFFFFF;stop-opacity:0"
         id="stop870" />
    </radialGradient>
    <path
       style="opacity:0.2;fill:url(#SVGID_1_)"
       inkscape:connector-curvature="0"
       enable-background="new    "
       d="M 137.1,56.11 109.34,28.35 86.06,5.07 C 84.03,3.03 79.79,0.59 76.21,0.59 c -3.08,0 -6.1,0.62 -8.06,1.79 L 25.17,23.87 3.68,68.64 c -0.77,1.63 -1.79,4.46 -1.79,6.27 0,3.91 1.72,7.91 4.48,10.75 l 21.46,21.3 c 0.51,0.63 1.11,1.27 1.83,1.98 l 0.9,0.9 2.69,2.69 23.28,23.28 0.9,0.9 h 55.52 0.9 v -24.18 h 24.18 v -0.06 -55.46 z"
       id="path31" />
  </g>
  <path
     style="color:#000000;display:inline;overflow:visible;visibility:visible;opacity:0.1;fill:#ffffff;fill-opacity:1;fill-rule:nonzero;stroke:none;stroke-width:0.26457033;marker:none;enable-background:accumulate"
     d="M 33.688674,3.4856498 V 62.749401 h 12.984614 c 9.338464,0 10.054627,-0.962123 10.297574,-10.316435 V 33.117526 13.802084 c 0,-9.3574642 -0.95911,-10.3164342 -10.297574,-10.3164342 z"
     id="path4231"
     inkscape:connector-curvature="0"
     sodipodi:nodetypes="ccsscssc" />
  <path
     inkscape:connector-curvature="0"
     style="color:#000000;display:inline;overflow:visible;visibility:visible;opacity:0.2;fill:#ffffff;fill-opacity:1;fill-rule:nonzero;stroke:none;stroke-width:0.26457033;marker:none;enable-background:accumulate"
     d="m 10.406486,33.117526 v 19.31544 c -0.04577,9.357354 0.959109,10.316435 10.297574,10.316435 h 25.969228 c 9.338464,0 10.054627,-0.962123 10.297574,-10.316435 v -19.31544 z"
     id="path4255"
     sodipodi:nodetypes="ccssscc" />
  <path
     style="color:#000000;display:inline;overflow:visible;visibility:visible;opacity:0.4;fill:#ffffff;fill-opacity:1;fill-rule:nonzero;stroke:none;stroke-width:2.11656237;stroke-linecap:butt;stroke-linejoin:miter;stroke-miterlimit:4;stroke-dasharray:none;stroke-dashoffset:0;stroke-opacity:1;marker:none;enable-background:accumulate"
     d="M 41.096643,62.749401 56.970862,46.875182 v 5.948567 c -0.01384,8.994282 -1.006077,9.925652 -10.099734,9.925652 z"
     id="path4254"
     inkscape:connector-curvature="0"
     sodipodi:nodetypes="cccsc" />
</svg>
